src/dsmComponents/Icons/location-pin-lost-24px.svg

<?xml version="1.0" encoding="UTF-8"?>
<svg width="20px" height="24px" viewBox="0 0 20 24" version="1.1" xmlns="http://www.w3.org/2000/svg" xmlns:xlink="http://www.w3.org/1999/xlink">
    <!-- Generator: Sketch 59.1 (86144) - https://sketch.com -->
    <title>location-pin-lost-24px</title>
    <desc>Created with Sketch.</desc>
    <defs>
        <path d="M0.655288947,2.56458317 C0.868382897,2.30058088 1.24654963,2.26614579 1.50066166,2.4884086 L1.50066166,2.4884086 L19.7857233,18.4913304 C20.0388349,18.7125497 20.0728499,19.1069879 19.8597559,19.3720337 L19.8597559,19.3720337 L19.3435283,20.0127349 C19.1314348,20.2767372 18.7532681,20.3122158 18.499156,20.089953 L18.499156,20.089953 L16.2201513,18.0948052 C14.0962149,21.1282229 11.8342176,23.5230263 11.6771483,23.6868538 C11.4770601,23.8955513 11.2769719,23.9999 10.9768396,23.9999 C10.6767072,23.9999 10.476619,23.8955513 10.2765308,23.6868538 C9.97639849,23.3738076 1.97286985,14.9215602 1.97286985,9.39107731 C1.97286985,8.19315385 2.17495895,7.09853564 2.52011112,6.10409221 L2.52011112,6.10409221 L0.214094431,4.08703119 C-0.0390171619,3.86476839 -0.0730321586,3.47033018 0.140061791,3.20632788 L0.140061791,3.20632788 Z M10.9767395,-0.0001 C15.3786803,-0.0001 19.9807092,3.54775694 19.9807092,9.39128601 C19.9807092,10.9617345 19.3334239,12.7669675 18.4020132,14.5555048 L18.4020132,14.5555048 L13.7679701,10.500513 C13.8910244,10.1551187 13.9780628,9.79094166 13.9780628,9.39128601 C13.9780628,7.61735754 12.6774894,6.26082401 10.9767395,6.26082401 C10.4004855,6.26082401 9.87625433,6.42569501 9.42905717,6.70221915 L9.42905717,6.70221915 L4.75099468,2.60757485 C6.45974805,0.933821165 8.73775239,-0.0001 10.9767395,-0.0001 Z" id="path-1"></path>
    </defs>
    <g id="Final" stroke="none" stroke-width="1" fill="none" fill-rule="evenodd">
        <g id="All-Nucleo-Icons" transform="translate(-610.000000, -4382.000000)">
            <g id="Solo/Nucleo/24px/location-pin-lost" transform="translate(608.000000, 4382.000000)">
                <g id="location-lost" transform="translate(2.000000, 0.000000)">
                    <g id="Group-3" transform="translate(0.000000, 2.000000)"></g>
                    <g id="Group-6">
                        <g id="Colour/Default-Colour">
                            <mask id="mask-2" fill="white">
                                <use xlink:href="#path-1"></use>
                            </mask>
                            <use id="Mask" fill="#000000" xlink:href="#path-1"></use>
                            <g id="colour/neutral/chia" mask="url(#mask-2)" fill="#737373">
                                <g transform="translate(-22.000000, -21.000000)" id="Colour">
                                    <rect x="0" y="0" width="64" height="64"></rect>
                                </g>
                            </g>
                        </g>
                    </g>
                </g>
            </g>
        </g>
    </g>
</svg>

<svg width="20" height="24" xmlns="http://www.w3.org/2000/svg" xmlns:xlink="http://www.w3.org/1999/xlink"><defs><path d="M.655 2.565a.584.584 0 01.846-.077l18.285 16.003a.644.644 0 01.074.881l-.516.64a.583.583 0 01-.845.078l-2.279-1.995a53.278 53.278 0 01-4.543 5.592c-.2.209-.4.313-.7.313-.3 0-.5-.104-.7-.313-.3-.313-8.304-8.765-8.304-14.296a9.96 9.96 0 01.547-3.287L.214 4.087a.644.644 0 01-.074-.88zM10.977 0c4.402 0 9.004 3.548 9.004 9.391 0 1.57-.648 3.376-1.579 5.165L13.768 10.5c.123-.346.21-.71.21-1.11 0-1.774-1.3-3.13-3.001-3.13-.577 0-1.1.165-1.548.441L4.751 2.608C6.46.934 8.738 0 10.977 0z" id="location-pin-lost-24px_svg__a"/></defs><use fill="#737373" xlink:href="#location-pin-lost-24px_svg__a" fill-rule="evenodd"/></svg>
